fs/shape_intersect_20_regular.svg

<svg viewBox="0 0 20 20" fill="none" xmlns="http://www.w3.org/2000/svg" height="1em" width="1em">
  <path d="M2 4.5C2 3.11929 3.11929 2 4.5 2H10.5C11.8807 2 13 3.11929 13 4.5V7H15.5C16.8807 7 18 8.11929 18 9.5V15.5C18 16.8807 16.8807 18 15.5 18H9.5C8.11929 18 7 16.8807 7 15.5V13H4.5C3.11929 13 2 11.8807 2 10.5V4.5ZM12 4.5C12 3.67157 11.3284 3 10.5 3H4.5C3.67157 3 3 3.67157 3 4.5V10.5C3 11.3284 3.67157 12 4.5 12H7V9.5C7 9.1439 7.07445 8.8052 7.20864 8.49859C7.44841 7.95074 7.8789 7.5054 8.41615 7.24653C8.44335 7.23342 8.47084 7.22079 8.49858 7.20864C8.80519 7.07445 9.1439 7 9.5 7H12V4.5ZM8 10.7072V12H8.29302L12 8.293V8H10.7072L8 10.7072ZM8.01654 9.27648L9.27648 8.01654C8.62699 8.11358 8.11357 8.62699 8.01654 9.27648ZM13 8V10.5C13 11.8807 11.8807 13 10.5 13H8V15.5C8 16.3284 8.67157 17 9.5 17H15.5C16.3284 17 17 16.3284 17 15.5V9.5C17 8.67157 16.3284 8 15.5 8H13ZM9.70723 12H10.5C11.3284 12 12 11.3284 12 10.5V9.70722L9.70723 12Z" fill="#212121"/>
</svg>

<svg viewBox="0 0 20 20" fill="none" xmlns="http://www.w3.org/2000/svg" height="1em" width="1em">
  <path d="M2 4.5A2.5 2.5 0 0 1 4.5 2h6A2.5 2.5 0 0 1 13 4.5V7h2.5A2.5 2.5 0 0 1 18 9.5v6a2.5 2.5 0 0 1-2.5 2.5h-6A2.5 2.5 0 0 1 7 15.5V13H4.5A2.5 2.5 0 0 1 2 10.5v-6Zm10 0A1.5 1.5 0 0 0 10.5 3h-6A1.5 1.5 0 0 0 3 4.5v6A1.5 1.5 0 0 0 4.5 12H7V9.5a2.491 2.491 0 0 1 1.416-2.253A2.5 2.5 0 0 1 9.5 7H12V4.5Zm-4 6.207V12h.293L12 8.293V8h-1.293L8 10.707Zm.017-1.43 1.26-1.26a1.5 1.5 0 0 0-1.26 1.26ZM13 8v2.5a2.5 2.5 0 0 1-2.5 2.5H8v2.5A1.5 1.5 0 0 0 9.5 17h6a1.5 1.5 0 0 0 1.5-1.5v-6A1.5 1.5 0 0 0 15.5 8H13Zm-3.293 4h.793a1.5 1.5 0 0 0 1.5-1.5v-.793L9.707 12Z" fill="#212121"/>
</svg>
